miniprogram/svg/albums.svg

<?xml version="1.0" standalone="no"?><!DOCTYPE svg PUBLIC "-//W3C//DTD SVG 1.1//EN" "http://www.w3.org/Graphics/SVG/1.1/DTD/svg11.dtd"><svg t="1535379364114" class="icon" style="" viewBox="0 0 1024 1024" version="1.1" xmlns="http://www.w3.org/2000/svg" p-id="9099" xmlns:xlink="http://www.w3.org/1999/xlink" width="200" height="200"><defs><style type="text/css"></style></defs><path d="M51.392 239.04l0 682.4 921.248 0 0-682.4-921.248 0zM938.496 887.328l-852.992 0 0-614.144 852.992 0 0 614.144z" p-id="9100" fill="#8a8a8a"></path><path d="M119.616 170.816l784.768 0 0 34.112-784.768 0 0-34.112z" p-id="9101" fill="#8a8a8a"></path><path d="M187.872 102.56l648.288 0 0 34.112-648.288 0 0-34.112z" p-id="9102" fill="#8a8a8a"></path></svg>

<?xml version="1.0" standalone="no"?><!DOCTYPE svg PUBLIC "-//W3C//DTD SVG 1.1//EN" "http://www.w3.org/Graphics/SVG/1.1/DTD/svg11.dtd"><svg t="1535818555350" class="icon" style="" viewBox="0 0 1024 1024" version="1.1" xmlns="http://www.w3.org/2000/svg" p-id="4060" xmlns:xlink="http://www.w3.org/1999/xlink" width="200" height="200"><defs><style type="text/css"></style></defs><path d="M51.392 239.04v682.4H972.64v-682.4H51.392z m887.104 648.288H85.504V273.184h852.992v614.144zM119.616 170.816h784.768v34.112H119.616v-34.112zM187.872 102.56H836.16v34.112H187.872V102.56z" p-id="4061" fill="#696969"></path></svg>
